X:16
T:the Peasant
R:Jig
M:6/8
L:1/8
K:D
f2f efg | afd c2A | FAd GBd | efg e2A |
f2f efg | afd c2A | FAd Bgf | edc d3 :|]
|:afd ecA | afd ecA | afd Bgf | efd cBA | 
afd ecA | afd ecA | dcd Bgf | edc d3 :|]
%%vskip 1.5cm
